X: 104
T:Tricotada
M:3/8
L:1/8
Q:210
C:Traditional
R:Polka
K:GMajor
Bdc|:B2 A/2B/2|G/2A/2B/2A/2B/2c/2|A/2B/2A/2B/2G|Bdc|!
B2 A|1G/2A/2B/2A/B/2c/2|ddd|Adc:|2G/2A/2BA|G2B/2A/2|!
|:GFG|A2  B/2A/2|G/2A/2B/2A/2B/2c/2|A/2B/2GB/2A/2|!
GFG|A2 A|G/2A/2BA|1G2B/2A/2:|2G3|Bdc||&quot;Last&quot;G3  ||
